icons/User-Square-1.svg

<svg width="24" height="24" viewBox="0 0 24 24" fill="none" xmlns="http://www.w3.org/2000/svg">
<g id="User-Square-1">
<path id="Vector" d="M17 3H7C4.79086 3 3 4.79086 3 7V17C3 19.2091 4.79086 21 7 21H17C19.2091 21 21 19.2091 21 17V7C21 4.79086 19.2091 3 17 3Z" stroke="#00153F" stroke-width="1.5" stroke-linecap="round" stroke-linejoin="round"/>
<path id="Vector_2" d="M12 13.6C13.5463 13.6 14.8 12.3464 14.8 10.8C14.8 9.2536 13.5463 8 12 8C10.4536 8 9.19995 9.2536 9.19995 10.8C9.19995 12.3464 10.4536 13.6 12 13.6Z" stroke="#00153F" stroke-width="1.5" stroke-linecap="round" stroke-linejoin="round"/>
<path id="Vector_3" d="M6.25 20.93V17.38C6.25262 16.9883 6.40939 16.6134 6.68638 16.3364C6.96337 16.0594 7.33829 15.9026 7.73 15.9H16.27C16.6617 15.9026 17.0366 16.0594 17.3136 16.3364C17.5906 16.6134 17.7474 16.9883 17.75 17.38V20.93" stroke="#00153F" stroke-width="1.5" stroke-linecap="round" stroke-linejoin="round"/>
</g>
</svg>

<svg xmlns="http://www.w3.org/2000/svg" fill="none" viewBox="0 0 24 24"><g stroke="currentColor" stroke-linecap="round" stroke-linejoin="round" stroke-width="1.5"><path d="M17 3H7a4 4 0 0 0-4 4v10a4 4 0 0 0 4 4h10a4 4 0 0 0 4-4V7a4 4 0 0 0-4-4Z"/><path d="M12 13.6A2.8 2.8 0 1 0 12 8a2.8 2.8 0 0 0 0 5.6Zm-5.75 7.33v-3.55a1.49 1.49 0 0 1 1.48-1.48h8.54a1.49 1.49 0 0 1 1.48 1.48v3.55"/></g></svg>
